X: 544
T: Nian gaomian
L: 1/8
M: 2/4
K: Eb
e2d c [I:setbarnb 1]| 
e2d c | 
e2g3/ c/ | 
B G B B | 
e> g f c | 
e G B c | 
B4 | 
cc2e | 
f g f e | 
e G B c | 
G FE2 | 
B c B B | 
G F/ F/E2 | 
e> g f e | 
e G B c | 
G FE2 |]

@@@ Tune index: 9418
